material/.icons/material/chip.svg

<svg xmlns="http://www.w3.org/2000/svg" viewBox="0 0 24 24"><path d="M6 4h12v1h3v2h-3v2h3v2h-3v2h3v2h-3v2h3v2h-3v1H6v-1H3v-2h3v-2H3v-2h3v-2H3V9h3V7H3V5h3V4m5 11v3h1v-3h-1m2 0v3h1v-3h-1m2 0v3h1v-3h-1z"/></svg>

<?xml version="1.0" encoding="UTF-8"?><!DOCTYPE svg PUBLIC "-//W3C//DTD SVG 1.1//EN" "http://www.w3.org/Graphics/SVG/1.1/DTD/svg11.dtd"><svg xmlns="http://www.w3.org/2000/svg" xmlns:xlink="http://www.w3.org/1999/xlink" version="1.1" id="mdi-chip" width="24" height="24" viewBox="0 0 24 24"><path d="M6,4H18V5H21V7H18V9H21V11H18V13H21V15H18V17H21V19H18V20H6V19H3V17H6V15H3V13H6V11H3V9H6V7H3V5H6V4M11,15V18H12V15H11M13,15V18H14V15H13M15,15V18H16V15H15Z" /></svg>
